docs/static/icon.svg

<svg width="60" height="60" viewBox="0 0 60 60" fill="none" xmlns="http://www.w3.org/2000/svg">
<path d="M5.88428 52.4812L7.11781 46.3752L42.5819 13.8099H15.0124L16.3076 7.51886H54.1155L52.8819 13.6249L17.4178 46.1285H46.7759L45.5424 52.4812H5.88428Z" fill="#8342FA"/>
</svg>

<svg xmlns="http://www.w3.org/2000/svg" width="60" height="60" fill="none" viewBox="0 0 60 60"><path fill="#8342fa" d="m5.884 52.481 1.234-6.106L42.582 13.81h-27.57l1.296-6.291h37.808l-1.234 6.106-35.464 32.504h29.358l-1.234 6.352z"/></svg>
